packages/sights/assets/overlays/3vKXafwc.svg

<svg width="500" height="375" viewBox="0 0 500 375" fill="none" xmlns="http://www.w3.org/2000/svg">
<path d="M36.24 75.639C36.24 75.639 62.38 36.429 81.41 28.639C81.41 28.639 143.85 9.30916 312.05 18.4592C312.05 18.4592 384.39 26.599 399.05 29.809L403.41 35.809L397.84 46.059L457.69 95.819C457.69 95.819 484.29 109.819 488.69 121.499L485.47 129.749C485.47 129.749 482.04 153.369 479.97 158.179L488.69 176.759C488.69 176.759 489.83 194.409 477.22 215.759L475.84 228.599C475.84 228.599 457.27 282.479 428.38 311.839C428.38 311.839 380.69 337.979 342.62 342.099L306.39 337.099L296.76 327.929C296.76 327.929 271.96 232.479 193.54 212.299C193.54 212.299 153.18 205.419 171.75 262.969C171.75 262.969 38.07 184.969 34.86 174.689C34.86 174.689 16.72 132.039 11 129.289" stroke="white" stroke-linejoin="round"/>
<path d="M11.0391 78.2695C14.2391 74.1495 28.9391 70.4795 28.9391 70.4795L34.9391 72.3095C36.4691 77.6995 37.0391 91.7995 37.0391 91.7995L33.3691 93.7995C33.3691 93.7995 17.3691 95.8695 15.1391 94.5995L11.0391 89.5095" stroke="white" stroke-linejoin="round"/>
<path d="M11.0391 176.639C11.0391 176.639 21.3691 200.639 30.8891 201.409L54.1591 195.099C54.1591 195.099 56.2591 193.159 56.4091 192.009" stroke="white" stroke-linejoin="round"/>
<path d="M208.63 217.339L187.92 227.999C187.92 227.999 156.39 257.079 194.61 315.469C194.61 315.469 228.24 365.609 262.17 358.279L271.35 354.609L296.72 327.859" stroke="white" stroke-linejoin="round"/>
<path d="M254.517 343.214C268.512 334 265.362 304.512 247.48 277.352C229.598 250.191 203.756 235.643 189.761 244.857C175.765 254.071 178.916 283.559 196.798 310.719C214.68 337.88 240.521 352.428 254.517 343.214Z" stroke="white" stroke-linejoin="round"/>
<path d="M30.7305 165.289C30.7305 165.289 157.15 239.289 166.97 240.289" stroke="white" stroke-linejoin="round"/>
<path d="M36.4395 82.7191C36.4395 82.7191 62.5295 42.1591 84.6995 36.6591C84.6995 36.6591 123.069 29.0091 195.829 41.5491L224.259 120.729V127.459C224.259 127.459 225.179 142.129 216.929 151.309C216.929 151.309 213.569 168.809 201.029 190.439L199.799 201.439" stroke="white" stroke-linejoin="round"/>
<path d="M37.0391 91.7988L224.259 120.729" stroke="white" stroke-linejoin="round"/>
<path d="M119.039 34.3486C119.039 34.3486 101.129 88.9386 102.499 98.5686L94.9391 106.269L88.2891 124.939V129.289C88.2891 129.289 89.2091 169.879 97.4591 187.079L93.3791 201.409L95.8091 217.339" stroke="white" stroke-linejoin="round"/>
<path d="M260.949 51.6393L295.499 40.9393C295.499 40.9393 371.619 27.7993 400.669 32.0693" stroke="white" stroke-linejoin="round"/>
<path d="M273.789 67.5393L299.789 45.8293C299.789 45.8293 304.679 41.8293 317.219 40.0193C317.219 40.0193 397.879 30.2093 402.339 34.3493" stroke="white" stroke-linejoin="round"/>
<path d="M292.82 51.6395C292.82 51.6395 365.82 39.4695 393.03 41.4295L397.84 46.0595" stroke="white" stroke-linejoin="round"/>
<path d="M457.689 95.819L459.069 99.639C459.069 99.639 426.069 144.579 330.809 138.159C330.809 138.159 274.099 70.289 271.039 62.949L256.979 50.429C256.979 50.429 208.979 27.789 121.539 28.999C121.539 28.999 80.5395 29.189 65.3595 43.069C65.3595 43.069 41.4495 68.289 36.4395 79.069" stroke="white" stroke-linejoin="round"/>
<path d="M330.811 138.159L362.301 167.359" stroke="white" stroke-linejoin="round"/>
<path d="M294.891 167.359V172.629L320.341 215.279C320.341 215.279 354.051 227.889 397.611 215.279C397.611 215.279 411.371 199.919 418.021 198.279L435.221 190.029L448.751 162.509L446.001 159.509C446.001 159.509 435.911 155.839 421.461 161.119C421.461 161.119 395.321 167.309 383.631 167.309C383.631 167.309 360.931 168.449 305.891 163.639L294.891 167.359Z" stroke="white" stroke-linejoin="round"/>
<path d="M289.211 306.609L303.371 308.609C303.371 308.609 362.301 337.499 421.921 298.289L477.181 215.739" stroke="white" stroke-linejoin="round"/>
<path d="M397.611 215.279C397.611 215.279 398.991 228.119 393.721 232.479C393.721 232.479 418.481 260.909 428.341 259.309C428.341 259.309 464.851 251.049 488.671 179.739" stroke="white" stroke-linejoin="round"/>
<path d="M448.75 162.539C448.75 162.539 479.75 143.739 485.43 129.749" stroke="white" stroke-linejoin="round"/>
<path d="M408.689 247.739C408.689 247.739 456.769 223.079 472.359 175.609L473.969 168.389C473.969 168.389 478.699 162.389 479.969 158.179" stroke="white" stroke-linejoin="round"/>
</svg>

<svg width="500" height="375" fill="none" xmlns="http://www.w3.org/2000/svg"><path d="M36.24 75.639s26.14-39.21 45.17-47c0 0 62.44-19.33 230.64-10.18 0 0 72.34 8.14 87 11.35l4.36 6-5.57 10.25 59.85 49.76s26.6 14 31 25.68l-3.22 8.25s-3.43 23.62-5.5 28.43l8.72 18.58s1.14 17.65-11.47 39l-1.38 12.84s-18.57 53.88-47.46 83.24c0 0-47.69 26.14-85.76 30.26l-36.23-5-9.63-9.17s-24.8-95.45-103.22-115.63c0 0-40.36-6.88-21.79 50.67 0 0-133.68-78-136.89-88.28 0 0-18.14-42.65-23.86-45.4" stroke="#fff" stroke-linejoin="round"/><path d="M11.04 78.27c3.2-4.12 17.9-7.79 17.9-7.79l6 1.83c1.53 5.39 2.1 19.49 2.1 19.49l-3.67 2s-16 2.07-18.23.8l-4.1-5.09M11.04 176.639s10.33 24 19.85 24.77l23.27-6.31s2.1-1.94 2.25-3.09M208.63 217.339l-20.71 10.66s-31.53 29.08 6.69 87.47c0 0 33.63 50.14 67.56 42.81l9.18-3.67 25.37-26.75" stroke="#fff" stroke-linejoin="round"/><path d="M254.517 343.214c13.995-9.214 10.845-38.702-7.037-65.862-17.882-27.161-43.724-41.709-57.719-32.495-13.996 9.214-10.845 38.702 7.037 65.862 17.882 27.161 43.723 41.709 57.719 32.495ZM30.73 165.289s126.42 74 136.24 75M36.44 82.72S62.53 42.16 84.7 36.66c0 0 38.369-7.65 111.129 4.89l28.43 79.179v6.73s.92 14.67-7.33 23.85c0 0-3.36 17.5-15.9 39.13l-1.23 11M37.04 91.799l187.219 28.93" stroke="#fff" stroke-linejoin="round"/><path d="M119.039 34.349s-17.91 54.59-16.54 64.22l-7.56 7.7-6.65 18.67v4.35s.92 40.59 9.17 57.79l-4.08 14.33 2.43 15.93M260.949 51.64l34.55-10.7s76.12-13.14 105.17-8.87" stroke="#fff" stroke-linejoin="round"/><path d="m273.789 67.54 26-21.71s4.89-4 17.43-5.81c0 0 80.66-9.81 85.12-5.67" stroke="#fff" stroke-linejoin="round"/><path d="M292.82 51.64s73-12.17 100.21-10.21l4.81 4.63M457.689 95.819l1.38 3.82s-33 44.94-128.26 38.52c0 0-56.71-67.87-59.77-75.21l-14.06-12.52s-48-22.64-135.44-21.43c0 0-41 .19-56.18 14.07 0 0-23.91 25.22-28.92 36M330.811 138.159l31.49 29.2M294.891 167.359v5.27l25.45 42.65s33.71 12.61 77.27 0c0 0 13.76-15.36 20.41-17l17.2-8.25 13.53-27.52-2.75-3s-10.09-3.67-24.54 1.61c0 0-26.14 6.19-37.83 6.19 0 0-22.7 1.14-77.74-3.67l-11 3.72ZM289.211 306.609l14.16 2s58.93 28.89 118.55-10.32l55.26-82.55" stroke="#fff" stroke-linejoin="round"/><path d="M397.611 215.279s1.38 12.84-3.89 17.2c0 0 24.76 28.43 34.62 26.83 0 0 36.51-8.26 60.33-79.57M448.75 162.539s31-18.8 36.68-32.79" stroke="#fff" stroke-linejoin="round"/><path d="M408.689 247.739s48.08-24.66 63.67-72.13l1.61-7.22s4.73-6 6-10.21" stroke="#fff" stroke-linejoin="round"/></svg>
